X: 12868
T: Fermoy Lasses, The
R: reel
M: 4/4
K: Eminor
BA|:GE~E2 BE~E2|GE~E2 B2BA|GE~E2 BE~E2|ADED A2BA|
GE~E2 BE~E2|GE~E2 B2BA|G2GF GBdB|AFDF A2BA:|
|:G2 (3BAG DGBG|~G2Bd (3efg dB|G2 (3BAG DG~G2|AF~F2 DF~F2|
G2 (3BAG DGBG|1 ~G2 (3Bcd efg2|afge dedB|AFDF A2BA:|
[2 ~G2 (3Bcd efga|afge d2dB|A^GAB c2BA||

